static/images/security/security-content-img-1.svg

<svg width="474" height="503" fill="none" xmlns="http://www.w3.org/2000/svg"><g filter="url(#a)"><path d="M126.632 369.232a151.568 151.568 0 0 0 260.341-52.295 151.569 151.569 0 0 0-5.351-105.465l-17.291 7.444a132.747 132.747 0 0 1-142.758 183.589 132.752 132.752 0 0 1-80.562-45.423l-14.379 12.15Z" fill="#E2E4F1"/></g><g filter="url(#b)"><circle cx="246.249" cy="269.514" r="100.288" fill="#fff"/></g><g filter="url(#c)"><circle cx="132.288" cy="132.288" r="100.288" fill="#fff"/></g><path d="M131.727 195.454C96.594 195.454 68 166.859 68 131.727 68 96.571 96.594 68 131.727 68c35.155 0 63.727 28.594 63.727 63.727.023 35.132-28.572 63.727-63.727 63.727Zm0-126.198c-34.434 0-62.447 28.013-62.447 62.448 0 34.434 28.013 62.447 62.447 62.447s62.447-28.013 62.447-62.447c0-34.435-28.013-62.448-62.447-62.448Z" fill="#E2E4F1"/><path d="m164.154 108.53-6.515-6.514c-2.14-2.141-5.212-3.211-8.446-2.955-3.024.256-5.956 1.652-8.213 3.908l-12.494 12.495a4.284 4.284 0 0 0-.698.907 11.184 11.184 0 0 0-4.141-.442c-3.025.256-5.956 1.652-8.213 3.909l-19.94 19.939c-2.233 2.234-3.63 5.095-3.908 8.05-.326 3.327.72 6.375 2.954 8.586l6.515 6.514c1.931 1.931 4.584 3.001 7.422 3.001.396 0 .768-.023 1.163-.046 2.978-.279 5.84-1.675 8.051-3.909l11.4-11.4a4.736 4.736 0 0 0 1.233-2.164c1.164.419 2.42.651 3.723.651 3.327 0 6.701-1.442 9.213-3.955l19.94-19.939c2.233-2.234 3.606-5.096 3.909-8.051.302-3.303-.745-6.351-2.955-8.585Zm-37.32 24.29c-.232-.232-.209-.698-.186-.884.07-.744.489-1.559 1.14-2.21a4.61 4.61 0 0 0 .675-.838l3.35 3.351c.233.232.21.698.186.884-.069.744-.488 1.559-1.14 2.21a4.755 4.755 0 0 0-.674.861l-3.351-3.374Zm11.75-7.398-3.257-3.258 12.424-12.424c.651-.651 1.442-1.07 2.187-1.14.419-.047.768.023.931.186l6.514 6.515c.233.232.21.698.186.884-.07.744-.488 1.559-1.14 2.21l-14.844 14.844c.093-3.001-.954-5.77-3.001-7.817Zm-16.287 18.427-11.4 11.4c-.652.652-1.466 1.07-2.211 1.14-.395.047-.744-.023-.884-.186l-6.514-6.514c-.233-.233-.21-.699-.186-.885.069-.744.488-1.558 1.14-2.21l14.844-14.844c-.117 3.025.93 5.793 2.978 7.841l3.397 3.397a4.56 4.56 0 0 0-1.164.861Z" fill="url(#d)"/><path opacity=".4" d="m272.355 287.108 2.35 2.443c.442.465 1.233.418 1.605-.117 4.165-6.189 6.305-13.541 6.072-21.172-.651-19.847-17.333-35.482-37.179-34.807a34.499 34.499 0 0 0-4.095.372c-16.496 2.397-29.386 16.194-30.642 32.829-.675 9.051 2.001 17.776 7.352 24.733.396.511 1.187.511 1.605.023l2.164-2.583c.303-.372.326-.884.024-1.279-3.793-5.166-5.887-11.401-5.91-17.985-.07-15.938 12.331-29.409 28.199-30.665 17.543-1.443 32.55 12.168 33.131 29.548a30.552 30.552 0 0 1-4.769 17.426c-.303.349-.256.885.093 1.234Z" fill="url(#e)"/><path opacity=".6" d="m263.883 277.777 2.792 2.908c.582.605 1.583.419 1.908-.326a23.808 23.808 0 0 0 2.234-11.028c-.372-11.517-8.888-21.335-20.242-23.313a24.809 24.809 0 0 0-10.051.326c-11.191 2.722-19.032 13.076-18.66 24.592a23.917 23.917 0 0 0 2.955 10.843c.396.721 1.396.837 1.931.209l2.606-3.094c.303-.349.349-.838.163-1.234a18.07 18.07 0 0 1-1.605-6.91c-.256-7.701 4.397-14.82 11.54-17.705 4.002-1.606 8.539-1.769 12.633-.419 7.329 2.419 12.425 9.213 12.681 16.914a18.866 18.866 0 0 1-1.14 7.004c-.14.442-.047.93.255 1.233Z" fill="url(#f)"/><path d="m267.644 300.648-.326-10.051c-.023-.675-.256-2.979-2.187-3.583-.931-.303-1.815-.14-2.536.209l-.163.023h-.047c-.372-1.256-1.233-2.024-2.489-2.21-1.512-.209-2.513.279-3.141.744-.652-1.302-1.931-1.954-3.606-1.768-1.257.14-2.164.791-2.816 1.629l-.279-8.585c-.046-1.676-.163-3.374-.163-5.049a3.569 3.569 0 0 0-3.536-3.141c-1.047 0-2.071.512-2.746 1.279-.721.815-.767 1.815-.767 2.862v4.118l.023 11.401c-.07.349.139 8.283.139 8.283a62.06 62.06 0 0 1-2.163-2.141c-1.629-1.698-4.537-2.768-6.445-2.931-1.001-.093-1.768.093-2.28.488-.163.14-.326.279-.466.442-.954 1.001-1.652 2.583-.93 3.723.302.489.837.814 1.396 1.14.744.442 1.954.907 2.908 2.047 1.582 1.908 5.258 6.143 7.515 8.4.465.256 1.443 1.186 1.908 1.419 1.396.837 2.536 1.629 2.955 2.047.302.349 2.14 1.187 2.14 1.187 1.489.861 4.142 1.652 7.19 1.536 3.047-.094 5.816 0 7.794-1.862h.116l.047-.139c2.024-1.978 3.21-4.654 3.117-7.562-.046-.814-.139-3.467-.162-3.955Z" fill="url(#g)"/><path d="M246.074 261.095c-4.7.162-8.376 4.071-8.213 8.771.093 2.536 1 4.746 2.675 6.259v-3.583a5.84 5.84 0 0 1 1.28-3.63 5.753 5.753 0 0 1 4.514-2.164c2.722 0 5.002 1.885 5.63 4.421.093.442.163.884.163 1.349l.023 3.723c1.931-1.605 2.816-4.141 2.722-6.957-.162-4.676-4.094-8.352-8.794-8.189Z" fill="url(#h)"/><path d="M245.89 334.78c-35.784 0-64.89-29.106-64.89-64.89S210.106 205 245.89 205s64.89 29.106 64.89 64.89c.024 35.761-29.106 64.89-64.89 64.89Zm0-128.524c-35.086 0-63.61 28.525-63.61 63.611 0 35.062 28.524 63.61 63.61 63.61 35.063 0 63.611-28.524 63.611-63.61 0-35.063-28.525-63.611-63.611-63.611Z" fill="#E2E4F1"/><defs><linearGradient id="d" x1="132.726" y1="177.688" x2="201.064" y2="172.223" gradientUnits="userSpaceOnUse"><stop stop-color="#5559CC"/><stop offset="1" stop-color="#E3E3F3"/></linearGradient><linearGradient id="e" x1="249.604" y1="302.029" x2="314.613" y2="296.352" gradientUnits="userSpaceOnUse"><stop stop-color="#5559CC"/><stop offset="1" stop-color="#E3E3F3"/></linearGradient><linearGradient id="f" x1="248.533" y1="288.855" x2="292.681" y2="284.692" gradientUnits="userSpaceOnUse"><stop stop-color="#5559CC"/><stop offset="1" stop-color="#E3E3F3"/></linearGradient><linearGradient id="g" x1="250.789" y1="322.141" x2="284.673" y2="320.163" gradientUnits="userSpaceOnUse"><stop stop-color="#5559CC"/><stop offset="1" stop-color="#E3E3F3"/></linearGradient><linearGradient id="h" x1="247.127" y1="278.904" x2="262.506" y2="277.682" gradientUnits="userSpaceOnUse"><stop stop-color="#5559CC"/><stop offset="1" stop-color="#E3E3F3"/></linearGradient><filter id="a" x="46.633" y="131.472" width="427.34" height="371.502" filterUnits="userSpaceOnUse" color-interpolation-filters="sRGB"><feFlood flood-opacity="0" result="BackgroundImageFix"/><feColorMatrix in="SourceAlpha" values="0 0 0 0 0 0 0 0 0 0 0 0 0 0 0 0 0 0 127 0" result="hardAlpha"/><feOffset/><feGaussianBlur stdDeviation="40"/><feComposite in2="hardAlpha" operator="out"/><feColorMatrix values="0 0 0 0 0.777767 0 0 0 0 0.797986 0 0 0 0 0.865384 0 0 0 0.4 0"/><feBlend in2="BackgroundImageFix" result="effect1_dropShadow_3146_176137"/><feBlend in="SourceGraphic" in2="effect1_dropShadow_3146_176137" result="shape"/></filter><filter id="b" x="113.961" y="137.226" width="264.574" height="264.576" filterUnits="userSpaceOnUse" color-interpolation-filters="sRGB"><feFlood flood-opacity="0" result="BackgroundImageFix"/><feColorMatrix in="SourceAlpha" values="0 0 0 0 0 0 0 0 0 0 0 0 0 0 0 0 0 0 127 0" result="hardAlpha"/><feOffset/><feGaussianBlur stdDeviation="16"/><feComposite in2="hardAlpha" operator="out"/><feColorMatrix values="0 0 0 0 0.886275 0 0 0 0 0.894118 0 0 0 0 0.945098 0 0 0 0.6 0"/><feBlend in2="BackgroundImageFix" result="effect1_dropShadow_3146_176137"/><feBlend in="SourceGraphic" in2="effect1_dropShadow_3146_176137" result="shape"/></filter><filter id="c" x="0" y="0" width="264.574" height="264.576" filterUnits="userSpaceOnUse" color-interpolation-filters="sRGB"><feFlood flood-opacity="0" result="BackgroundImageFix"/><feColorMatrix in="SourceAlpha" values="0 0 0 0 0 0 0 0 0 0 0 0 0 0 0 0 0 0 127 0" result="hardAlpha"/><feOffset/><feGaussianBlur stdDeviation="16"/><feComposite in2="hardAlpha" operator="out"/><feColorMatrix values="0 0 0 0 0.886275 0 0 0 0 0.894118 0 0 0 0 0.945098 0 0 0 0.6 0"/><feBlend in2="BackgroundImageFix" result="effect1_dropShadow_3146_176137"/><feBlend in="SourceGraphic" in2="effect1_dropShadow_3146_176137" result="shape"/></filter></defs></svg>

<svg width="474" height="503" viewBox="0 0 474 503" fill="none" xmlns="http://www.w3.org/2000/svg">
<g filter="url(#filter0_d_3146_176137)">
<path d="M126.632 369.232C150.086 396.988 182.731 415.394 218.618 421.096C254.506 426.799 291.249 419.418 322.15 400.299C353.052 381.181 376.057 351.596 386.973 316.937C397.89 282.277 395.99 244.849 381.622 211.472L364.331 218.916C376.915 248.147 378.578 280.927 369.018 311.282C359.458 341.637 339.31 367.547 312.246 384.291C285.182 401.035 253.003 407.499 221.573 402.505C190.142 397.51 161.552 381.39 141.011 357.082L126.632 369.232Z" fill="#E2E4F1"/>
</g>
<g filter="url(#filter1_d_3146_176137)">
<circle cx="246.249" cy="269.514" r="100.288" fill="white"/>
</g>
<g filter="url(#filter2_d_3146_176137)">
<circle cx="132.288" cy="132.288" r="100.288" fill="white"/>
</g>
<path d="M131.727 195.454C96.5945 195.454 68 166.859 68 131.727C68 96.5712 96.5945 68 131.727 68C166.882 68 195.454 96.5945 195.454 131.727C195.477 166.859 166.882 195.454 131.727 195.454ZM131.727 69.2564C97.2925 69.2564 69.2797 97.2692 69.2797 131.704C69.2797 166.138 97.2925 194.151 131.727 194.151C166.161 194.151 194.174 166.138 194.174 131.704C194.174 97.2692 166.161 69.2564 131.727 69.2564Z" fill="#E2E4F1"/>
<path d="M164.154 108.53L157.639 102.016C155.499 99.875 152.427 98.8048 149.193 99.0607C146.169 99.3166 143.237 100.713 140.98 102.969L128.486 115.464C128.207 115.743 127.974 116.045 127.788 116.371C126.485 115.975 125.066 115.813 123.647 115.929C120.622 116.185 117.691 117.581 115.434 119.838L95.4944 139.777C93.2608 142.011 91.8648 144.872 91.5856 147.827C91.2599 151.154 92.3069 154.202 94.5405 156.413L101.055 162.927C102.986 164.858 105.639 165.928 108.477 165.928C108.873 165.928 109.245 165.905 109.64 165.882C112.618 165.603 115.48 164.207 117.691 161.973L129.091 150.573C129.719 149.944 130.115 149.2 130.324 148.409C131.488 148.828 132.744 149.06 134.047 149.06C137.374 149.06 140.748 147.618 143.26 145.105L163.2 125.166C165.433 122.932 166.806 120.07 167.109 117.115C167.411 113.812 166.364 110.764 164.154 108.53ZM126.834 132.82C126.602 132.588 126.625 132.122 126.648 131.936C126.718 131.192 127.137 130.377 127.788 129.726C128.044 129.47 128.277 129.191 128.463 128.888L131.813 132.239C132.046 132.471 132.023 132.937 131.999 133.123C131.93 133.867 131.511 134.682 130.859 135.333C130.603 135.589 130.371 135.891 130.185 136.194L126.834 132.82ZM138.584 125.422L135.327 122.164L147.751 109.74C148.402 109.089 149.193 108.67 149.938 108.6C150.357 108.553 150.706 108.623 150.869 108.786L157.383 115.301C157.616 115.533 157.593 115.999 157.569 116.185C157.499 116.929 157.081 117.744 156.429 118.395L141.585 133.239C141.678 130.238 140.631 127.469 138.584 125.422ZM122.297 143.849L110.897 155.249C110.245 155.901 109.431 156.319 108.686 156.389C108.291 156.436 107.942 156.366 107.802 156.203L101.288 149.689C101.055 149.456 101.078 148.99 101.102 148.804C101.171 148.06 101.59 147.246 102.242 146.594L117.086 131.75C116.969 134.775 118.016 137.543 120.064 139.591L123.461 142.988C123.042 143.197 122.646 143.5 122.297 143.849Z" fill="url(#paint0_linear_3146_176137)"/>
<g opacity="0.4">
<g opacity="0.4">
<g opacity="0.4">
<path opacity="0.4" d="M272.355 287.108L274.705 289.551C275.147 290.016 275.938 289.969 276.31 289.434C280.475 283.245 282.615 275.893 282.382 268.262C281.731 248.415 265.049 232.78 245.203 233.455C243.83 233.502 242.457 233.618 241.108 233.827C224.612 236.224 211.722 250.021 210.466 266.656C209.791 275.707 212.467 284.432 217.818 291.389C218.214 291.9 219.005 291.9 219.423 291.412L221.587 288.829C221.89 288.457 221.913 287.945 221.611 287.55C217.818 282.384 215.724 276.149 215.701 269.565C215.631 253.627 228.032 240.156 243.9 238.9C261.443 237.457 276.45 251.068 277.031 268.448C277.241 274.66 275.542 280.709 272.262 285.874C271.959 286.223 272.006 286.759 272.355 287.108Z" fill="url(#paint1_linear_3146_176137)"/>
</g>
</g>
</g>
<g opacity="0.6">
<g opacity="0.6">
<g opacity="0.6">
<path opacity="0.6" d="M263.883 277.777L266.675 280.685C267.257 281.29 268.258 281.104 268.583 280.359C270.189 276.939 270.956 273.193 270.817 269.331C270.445 257.814 261.929 247.996 250.575 246.018C247.271 245.436 243.805 245.553 240.524 246.344C229.333 249.066 221.492 259.42 221.864 270.936C221.981 274.799 223.004 278.475 224.819 281.779C225.215 282.5 226.215 282.616 226.75 281.988L229.356 278.894C229.659 278.545 229.705 278.056 229.519 277.66C228.542 275.497 227.983 273.147 227.914 270.75C227.658 263.049 232.311 255.93 239.454 253.045C243.456 251.439 247.993 251.276 252.087 252.626C259.416 255.045 264.512 261.839 264.768 269.54C264.837 271.937 264.442 274.31 263.628 276.544C263.488 276.986 263.581 277.474 263.883 277.777Z" fill="url(#paint2_linear_3146_176137)"/>
</g>
</g>
</g>
<path d="M267.644 300.648L267.318 290.597C267.295 289.922 267.062 287.618 265.131 287.014C264.2 286.711 263.316 286.874 262.595 287.223L262.432 287.246H262.385C262.013 285.99 261.152 285.222 259.896 285.036C258.384 284.827 257.383 285.315 256.755 285.78C256.103 284.478 254.824 283.826 253.149 284.012C251.892 284.152 250.985 284.803 250.333 285.641L250.054 277.056C250.008 275.38 249.891 273.682 249.891 272.007C249.682 270.238 248.17 268.866 246.355 268.866C245.308 268.866 244.284 269.378 243.609 270.145C242.888 270.96 242.842 271.96 242.842 273.007V277.125L242.865 288.526C242.795 288.875 243.004 296.809 243.004 296.809C242.306 296.157 241.539 295.39 240.841 294.668C239.212 292.97 236.304 291.9 234.396 291.737C233.395 291.644 232.628 291.83 232.116 292.225C231.953 292.365 231.79 292.504 231.65 292.667C230.696 293.668 229.998 295.25 230.72 296.39C231.022 296.879 231.557 297.204 232.116 297.53C232.86 297.972 234.07 298.437 235.024 299.577C236.606 301.485 240.282 305.72 242.539 307.977C243.004 308.233 243.982 309.163 244.447 309.396C245.843 310.233 246.983 311.025 247.402 311.443C247.704 311.792 249.542 312.63 249.542 312.63C251.031 313.491 253.684 314.282 256.732 314.166C259.779 314.072 262.548 314.166 264.526 312.304H264.642L264.689 312.165C266.713 310.187 267.899 307.511 267.806 304.603C267.76 303.789 267.667 301.136 267.644 300.648Z" fill="url(#paint3_linear_3146_176137)"/>
<path d="M246.074 261.095C241.374 261.257 237.698 265.166 237.861 269.866C237.954 272.402 238.861 274.612 240.536 276.125V272.542C240.536 271.169 241.025 269.913 241.816 268.912C242.886 267.586 244.492 266.748 246.33 266.748C249.052 266.748 251.332 268.633 251.96 271.169C252.053 271.611 252.123 272.053 252.123 272.518L252.146 276.241C254.077 274.636 254.962 272.1 254.868 269.284C254.706 264.608 250.774 260.932 246.074 261.095Z" fill="url(#paint4_linear_3146_176137)"/>
<path d="M245.89 334.78C210.106 334.78 181 305.674 181 269.89C181 234.106 210.106 205 245.89 205C281.674 205 310.78 234.106 310.78 269.89C310.804 305.651 281.674 334.78 245.89 334.78ZM245.89 206.256C210.804 206.256 182.28 234.781 182.28 269.867C182.28 304.929 210.804 333.477 245.89 333.477C280.953 333.477 309.501 304.953 309.501 269.867C309.501 234.804 280.976 206.256 245.89 206.256Z" fill="#E2E4F1"/>
<defs>
<filter id="filter0_d_3146_176137" x="46.6328" y="131.472" width="427.34" height="371.502" filterUnits="userSpaceOnUse" color-interpolation-filters="sRGB">
<feFlood flood-opacity="0" result="BackgroundImageFix"/>
<feColorMatrix in="SourceAlpha" type="matrix" values="0 0 0 0 0 0 0 0 0 0 0 0 0 0 0 0 0 0 127 0" result="hardAlpha"/>
<feOffset/>
<feGaussianBlur stdDeviation="40"/>
<feComposite in2="hardAlpha" operator="out"/>
<feColorMatrix type="matrix" values="0 0 0 0 0.777767 0 0 0 0 0.797986 0 0 0 0 0.865384 0 0 0 0.4 0"/>
<feBlend mode="normal" in2="BackgroundImageFix" result="effect1_dropShadow_3146_176137"/>
<feBlend mode="normal" in="SourceGraphic" in2="effect1_dropShadow_3146_176137" result="shape"/>
</filter>
<filter id="filter1_d_3146_176137" x="113.961" y="137.226" width="264.574" height="264.576" filterUnits="userSpaceOnUse" color-interpolation-filters="sRGB">
<feFlood flood-opacity="0" result="BackgroundImageFix"/>
<feColorMatrix in="SourceAlpha" type="matrix" values="0 0 0 0 0 0 0 0 0 0 0 0 0 0 0 0 0 0 127 0" result="hardAlpha"/>
<feOffset/>
<feGaussianBlur stdDeviation="16"/>
<feComposite in2="hardAlpha" operator="out"/>
<feColorMatrix type="matrix" values="0 0 0 0 0.886275 0 0 0 0 0.894118 0 0 0 0 0.945098 0 0 0 0.6 0"/>
<feBlend mode="normal" in2="BackgroundImageFix" result="effect1_dropShadow_3146_176137"/>
<feBlend mode="normal" in="SourceGraphic" in2="effect1_dropShadow_3146_176137" result="shape"/>
</filter>
<filter id="filter2_d_3146_176137" x="0" y="0" width="264.574" height="264.576" filterUnits="userSpaceOnUse" color-interpolation-filters="sRGB">
<feFlood flood-opacity="0" result="BackgroundImageFix"/>
<feColorMatrix in="SourceAlpha" type="matrix" values="0 0 0 0 0 0 0 0 0 0 0 0 0 0 0 0 0 0 127 0" result="hardAlpha"/>
<feOffset/>
<feGaussianBlur stdDeviation="16"/>
<feComposite in2="hardAlpha" operator="out"/>
<feColorMatrix type="matrix" values="0 0 0 0 0.886275 0 0 0 0 0.894118 0 0 0 0 0.945098 0 0 0 0.6 0"/>
<feBlend mode="normal" in2="BackgroundImageFix" result="effect1_dropShadow_3146_176137"/>
<feBlend mode="normal" in="SourceGraphic" in2="effect1_dropShadow_3146_176137" result="shape"/>
</filter>
<linearGradient id="paint0_linear_3146_176137" x1="132.726" y1="177.688" x2="201.064" y2="172.223" gradientUnits="userSpaceOnUse">
<stop stop-color="#5559CC"/>
<stop offset="1" stop-color="#E3E3F3"/>
</linearGradient>
<linearGradient id="paint1_linear_3146_176137" x1="249.604" y1="302.029" x2="314.613" y2="296.352" gradientUnits="userSpaceOnUse">
<stop stop-color="#5559CC"/>
<stop offset="1" stop-color="#E3E3F3"/>
</linearGradient>
<linearGradient id="paint2_linear_3146_176137" x1="248.533" y1="288.855" x2="292.681" y2="284.692" gradientUnits="userSpaceOnUse">
<stop stop-color="#5559CC"/>
<stop offset="1" stop-color="#E3E3F3"/>
</linearGradient>
<linearGradient id="paint3_linear_3146_176137" x1="250.789" y1="322.141" x2="284.673" y2="320.163" gradientUnits="userSpaceOnUse">
<stop stop-color="#5559CC"/>
<stop offset="1" stop-color="#E3E3F3"/>
</linearGradient>
<linearGradient id="paint4_linear_3146_176137" x1="247.127" y1="278.904" x2="262.506" y2="277.682" gradientUnits="userSpaceOnUse">
<stop stop-color="#5559CC"/>
<stop offset="1" stop-color="#E3E3F3"/>
</linearGradient>
</defs>
</svg>
